X:10736
T: Polka FCBb 
T:Hanny Christen. Bd.IX Uri II, Schwyz, Unterwalden I. S.298 (pk10895) orig. F,Bb-Dur
M:2/4
L:1/16
I:abc-charset utf-8
K:F  %%MIDI gchordon
"F"cBAd cAfc | "C7"ecBe d2c2 | ecBe d2c2 | "F"fcAa f2A2 | cBAd cAfc | "C7"ecBe d2c2 | 
Bceg c'3e |1 "F"f2a2 f2 z2 :|2 "F"f2a2 f2ga |: [K:C] "G7"g2de f3B | "C"c2c'2 c'bag | "G7"b2b2 a3g | "C"a2a2 g2ga | 
"G7"g2de f3B | "C"c2c'2 c'bc'd' | e'c'ga "G7"gfed | "C"c2e2 c2 z2 :: [K:Bb] "Bb"d2A2 B2d2 | g6 d2 | 
[L:1/8] g>d gd | "F7"fe/f/ e/d/c | e=B ce | a3 g | f>g f>e | "Bb"dd d/c/B | dA Bd | 
g3 d | fg ab | [L:1/16] "Cm/Eb"agec G4 | "F7"cdef g2a2 | "Bb"bfdg f2=ef | "F7"agcd fedc | "Bb"B2b2 b2 z2 :|  

